X:0055
T:The Carle he came o'er the Craft.
M:2/4
L:1/8
Q:1/4=120
I: :: ::
% G A B ^c d e ^f g a
Z:Jack Campin * www.campin.me.uk * 2009
K:A Mixolydian
A>BAe   |cAce|gddc|Bc/d/ BG |
A>BAe   |cAce|aeed|cd/e/ cA:|
aAAB    |cdef|gGGA|B/c/d BG |
AA/A/ a2|gea2|aeed|c/d/e cA:|

